svg/opsgenie.svg

<?xml version="1.0" encoding="UTF-8"?>
<svg xmlns="http://www.w3.org/2000/svg" xmlns:xlink="http://www.w3.org/1999/xlink" width="26.858999" height="32" viewBox="0 0 26.858999 32">
<path fill-rule="nonzero" fill="rgb(14.901961%, 51.764706%, 100%)" fill-opacity="1" d="M 14.109375 31.785156 C 19.320312 28.460938 23.65625 23.929688 26.746094 18.578125 C 26.863281 18.363281 26.890625 18.109375 26.820312 17.875 C 26.746094 17.640625 26.582031 17.445312 26.359375 17.335938 L 20.3125 14.371094 C 19.890625 14.164062 19.378906 14.320312 19.144531 14.730469 C 16.089844 19.851562 11.574219 23.941406 6.175781 26.472656 C 8.164062 28.480469 10.367188 30.261719 12.75 31.785156 C 13.164062 32.046875 13.691406 32.046875 14.109375 31.785156 "/>
</svg>

<svg role="img" viewBox="0 0 26.859 32" height="32" width="26.859" xmlns="http://www.w3.org/2000/svg"><path d="M13.43 0C9.023 0 5.453 3.574 5.45 7.98c0 4.407 3.573 7.977 7.98 7.98 4.406-.003 7.98-3.573 7.98-7.98A7.982 7.982 0 0 0 13.43 0" fill="url(#1381__1379__425__423__269__267__opsgenie-lp-0)"/><path d="M12.75 31.785A38.507 38.507 0 0 1 .113 18.578a.901.901 0 0 1 .39-1.242l6.044-2.965a.887.887 0 0 1 1.164.36 29.873 29.873 0 0 0 12.973 11.742 38.918 38.918 0 0 1-6.575 5.312 1.275 1.275 0 0 1-1.359 0" fill="url(#1382__1380__424__422__270__268__opsgenie-lp-1)"/><path d="M14.11 31.785a38.507 38.507 0 0 0 12.636-13.207.92.92 0 0 0 .074-.703.9.9 0 0 0-.46-.54l-6.047-2.964a.893.893 0 0 0-1.168.36 29.863 29.863 0 0 1-12.97 11.742 38.237 38.237 0 0 0 6.575 5.312c.414.262.941.262 1.36 0" fill="rgb(14.901961%, 51.764706%, 100%)"/></svg>
